www/assets/icons/directions_walk.svg

<svg width="24" height="24" viewBox="0 0 24 24" xmlns="http://www.w3.org/2000/svg" fill='currentColor'><path d="M13 5.25C14.1 5.25 15 4.35 15 3.25C15 2.15 14.1 1.25 13 1.25C11.9 1.25 11 2.15 11 3.25C11 4.35 11.9 5.25 13 5.25ZM9.3 8.65L6.5 22.75H8.6L10.4 14.75L12.5 16.75V22.75H14.5V15.25L12.4 13.25L13 10.25C14.3 11.75 16.3 12.75 18.5 12.75V10.75C16.6 10.75 15 9.75 14.2 8.35L13.2 6.75C12.8 6.15 12.2 5.75 11.5 5.75C11.2 5.75 11 5.85 10.7 5.85L5.5 8.05V12.75H7.5V9.35L9.3 8.65Z"/></svg>

<svg xmlns="http://www.w3.org/2000/svg" width="24" height="24" viewBox="0 0 24 24" fill='currentColor'><path d="M13 5.25c1.1 0 2-.9 2-2s-.9-2-2-2-2 .9-2 2 .9 2 2 2m-3.7 3.4-2.8 14.1h2.1l1.8-8 2.1 2v6h2v-7.5l-2.1-2 .6-3c1.3 1.5 3.3 2.5 5.5 2.5v-2c-1.9 0-3.5-1-4.3-2.4l-1-1.6c-.4-.6-1-1-1.7-1-.3 0-.5.1-.8.1l-5.2 2.2v4.7h2v-3.4z"/></svg>
